!!!!SEGMENT: pl-wnifc--6020-n--005_elsner-jozef--milosc-dar-nieba-zbyt-drogi.krn
!!!cenid: 18xx:3910
!!!COM: Elsner, Józef
!!!COM-rismID: pe30000957
!!!CDT: 1769/06/01-1854/04/18
!!!CNT: Polish
!!!OTL: Miłość dar nieba zbyt drogi
!!!PDT:
!!!AGN:
!!!SMS-siglum: PL-Wnifc
!!!SMS-shelfmark: 6020/n
!!!SMS-variant:
!!!SMS-altvar:
!!!SMS-shelfwork: 005 W
!!!NIFC-rismSourceID: 1001132996
!!!NIFC-rismChildID: 1001133002
!!!NIFC-islandoraID: nifc:212574
!!!URL-pdf-islandora: https://repozytorium.nifc.pl/islandora/object/nifc%3A212574/datastream/PDF/view
!!!URL-scan: https://polish.musicsources.pl/pl/lokalizacje/galeria/druki-muzyczne/16847 @EN{Scan on Polish Music Sources Website} @PL{Skany w portalu Dziedzictwo Muzyki Polskiej w otwartym dostępie}
!!!ONB-nifc: UWAGA: s. 10-11
!!!AIN: 2 clavi 1 soprn
!!!key: G
**kern	**kern	**dynam	**kern	**text
*part3	*part2	*part2	*part1	*part1
*staff3	*staff2	*	*staff1	*staff1
*I"Klawikord	*I"Klawikord	*	*I"Voce	*
*I'clav	*I'clav	*	*I'V	*
*Iclavi	*Iclavi	*	*Isoprn	*
*ICklav	*ICklav	*	*ICvox	*
*clefF4	*clefG2	*	*clefG2	*
*k[f#]	*k[f#]	*	*k[f#]	*
*G:	*G:	*	*G:	*
*M2/4	*M2/4	*	*M2/4	*
=1	=1	=1	=1	=1
!	!	!	!LO:TX:a:B:t=Allegretto	!
!LO:TUP:a:problem:klamra łukowa	!	!	!LO:TX:a:B:t=Allegretto	!
24G\LL	4r	p	2r	.
24B\	.	.	.	.
24d\JJ	.	.	.	.
!LO:TUP:a:problem:klamra łukowa	!	!	!	!
24G\LL	.	.	.	.
24B\	.	.	.	.
24d\JJ	.	.	.	.
!LO:TUP:a:problem:klamra łukowa	!	!	!	!
24G\LL	8dd\L	.	.	.
24B\	.	.	.	.
24d\JJ	.	.	.	.
!LO:TUP:a:problem:klamra łukowa	!	!	!	!
24G\LL	8dd\J	.	.	.
24B\	.	.	.	.
24d\JJ	.	.	.	.
=2	=2	=2	=2	=2
!LO:TUP:a:problem:klamra łukowa	!	!	!	!
24G\LL	4gg\	.	2r	.
24B\	.	.	.	.
24d\JJ	.	.	.	.
*rep	*	*	*	*
!LO:TUP:a:problem:klamra łukowa	!	!	!	!
24G\LL	.	.	.	.
24B\	.	.	.	.
24d\JJ	.	.	.	.
*Xrep	*	*	*	*
*rep	*	*	*	*
!LO:TUP:a:problem:klamra łukowa	!	!	!	!
24G\LL	8dd\L	.	.	.
24B\	.	.	.	.
24d\JJ	.	.	.	.
*Xrep	*	*	*	*
*rep	*	*	*	*
!LO:TUP:a:problem:klamra łukowa	!	!	!	!
24G\LL	8dd\J	.	.	.
24B\	.	.	.	.
24d\JJ	.	.	.	.
*Xrep	*	*	*	*
=3	=3	=3	=3	=3
!LO:TUP:a:problem:klamra łukowa	!	!	!	!
24F#\LL	4aa\	.	2r	.
24c\	.	.	.	.
24d\JJ	.	.	.	.
*rep	*	*	*	*
!LO:TUP:a:problem:klamra łukowa	!	!	!	!
24F#\LL	.	.	.	.
24c\	.	.	.	.
24d\JJ	.	.	.	.
*Xrep	*	*	*	*
*rep	*	*	*	*
!LO:TUP:a:problem:klamra łukowa	!	!	!	!
24F#\LL	8dd\L	.	.	.
24c\	.	.	.	.
24d\JJ	.	.	.	.
*Xrep	*	*	*	*
*rep	*	*	*	*
!LO:TUP:a:problem:klamra łukowa	!	!	!	!
24F#\LL	8dd\J	.	.	.
24c\	.	.	.	.
24d\JJ	.	.	.	.
*Xrep	*	*	*	*
=4	=4	=4	=4	=4
!LO:TUP:a:problem:klamra łukowa	!	!	!	!
24G\LL	8bb\L	<	2r	.
24B\	.	.	.	.
24d\JJ	.	.	.	.
*Xtuplet	*	*	*	*
24BB/LL	8gg\J	.	.	.
24D/	.	.	.	.
24G/JJ	.	.	.	.
24C/LL	8aa\L	.	.	.
24E/	.	.	.	.
24A/JJ	.	.	.	.
24D\LL	8ff#\J	[	.	.
24A\	.	.	.	.
24c\JJ	.	.	.	.
=	=	=	=	=
24G\LL	4gg\	f	4r	.
24B\	.	.	.	.
24d\JJ	.	.	.	.
8G\	.	.	.	.
=5!|:	=5!|:	=5!|:	=5!|:	=5!|:
!	!LO:TUP:a:problem:klamra łukowa	!	!	!
8G\ 8B 8d	24dd\LL	p	8dd\	Mi-
.	24b\	.	.	.
.	24g\JJ	.	.	.
!	!LO:TUP:a:problem:klamra łukowa	!	!	!
8G\ 8B 8d	24dd\LL	.	8dd\	-łość
.	24b\	.	.	.
.	24g\JJ	.	.	.
=6	=6	=6	=6	=6
!	!LO:TUP:a:problem:klamra łukowa	!	!	!
8G\L 8c 8e	24ee\LL	.	8ee\	dar
.	24cc\	.	.	.
.	24a\JJ	.	.	.
!	!LO:TUP:a:problem:klamra łukowa	!	!	!
8G\J 8B 8d	24dd\LL	.	8dd\	nie-
.	24b\	.	.	.
.	24g\JJ	.	.	.
!	!LO:TUP:a:problem:klamra łukowa	!	!	!
8G\L 8A 8c	24cc\LL	.	8.cc\	-ba
.	24a\	.	.	.
.	24f#\JJ	.	.	.
!	!LO:TUP:a:problem:klamra łukowa	!	!	!
8F#\J 8A 8d	24dd\LL	.	.	.
.	24cc\	.	.	.
.	.	.	16qqdd/LL	.
.	.	.	16qqcc/	.
.	.	.	16qqb/	.
.	.	.	16qqcc/JJ	.
.	.	.	16dd\	zbyt
.	24a\JJ	.	.	.
!!LO:LB:g=original
=7	=7	=7	=7	=7
.	.	.	8qcc/	.
*^	*	*	*	*
*	*	*Xtuplet	*	*	*
8G\L 8B	4ryy	24dd\LL	.	8b/	dro-
.	.	24b\	.	.	.
.	.	24g\JJ	.	.	.
8G\J 8B	.	24b\LL	.	16b/	-gi,
.	.	24g\	.	.	.
.	.	.	.	16r	.
.	.	24d\JJ	.	.	.
8F#/L 8A	4D\	24a/LL	.	8a/	iey
.	.	24f#/	.	.	.
.	.	24d/JJ	.	.	.
8G/J 8B	.	24b/LL	.	8b/	pła-
.	.	24g/	.	.	.
.	.	24d/JJ	.	.	.
=8	=8	=8	=8	=8	=8
*	*2\right	*	*	*	*
(<8A/L 8c	2D\	24cc/LL	.	8cc/	-cą
.	.	24a/	.	.	.
.	.	24d/JJ	.	.	.
8G/ 8B	.	24b/LL	.	8b/	hołd
.	.	24g/	.	.	.
.	.	24d/JJ	.	.	.
8F#/ 8A	.	24a/LL	.	8a/	wszys-
.	.	24f#/	.	.	.
.	.	24d/JJ	.	.	.
8E/J) 8G	.	24g/LL	.	8g/	-tkie
.	.	24e/	.	.	.
.	.	24d/JJ	.	.	.
*v	*v	*	*	*	*
=9	=9	=9	=9	=9
.	.	.	8qb/	.
8D/L 8F# 8A	24a/LL	.	8a/	sta-
.	24f#/	.	.	.
.	24d/JJ	.	.	.
8DD/ 8D	24a/LL	.	8a/	-ny,
.	24f#/	.	.	.
.	24d/JJ	.	.	.
8DD/J 8D	24a/LL	.	8r	.
.	24f#/	.	.	.
.	24d/JJ	.	.	.
8G\ 8B 8d	24dd\LL	.	8dd\	Mo-
.	24b\	.	.	.
.	24g\JJ	.	.	.
=10	=10	=10	=10	=10
8G\L 8c 8e	24ee\LL	.	8ee\	-mar-
.	24cc\	.	.	.
.	24g\JJ	.	.	.
8G\J 8B 8d	24dd\LL	.	8dd\	-cha.
.	24b\	.	.	.
.	24g\JJ	.	.	.
8G\L 8A 8c	24cc\LL	.	8cc\	że-
.	24a\	.	.	.
.	24g\JJ	.	.	.
8F#\J 8A 8d	24dd\LL	.	16cc\	-brak,
.	24cc\	.	.	.
.	.	.	16dd\	u-
.	24a\JJ	.	.	.
=11	=11	=11	=11	=11
.	.	.	8qcc/	.
8G\L 8B	24dd\LL	.	8b/	-no-
.	24b\	.	.	.
.	24g\JJ	.	.	.
8G\J 8B	24b/LL	.	16b/	-gi,
.	24g/	.	.	.
.	.	.	16r	.
.	24d/JJ	.	.	.
4BBB/ 4BB	24dd\LL	.	8g/	u-
.	24b\	.	.	.
.	24g\JJ	.	.	.
.	24ffn\LL	.	(8ffn\	-cze-
.	24dd\	.	.	.
.	24g\JJ	.	.	.
=12	=12	=12	=12	=12
4CC/ 4C	24ee\LL	.	8ee\)	nie,
.	24cc\	.	.	.
.	24g\JJ	.	.	.
.	24ee\LL	.	(16dd\LL	kmie-
.	24cc\	.	.	.
.	.	.	16cc\JJ	.
.	24a\JJ	.	.	.
8DD/L 8D	24b/LL	.	8b/)	-cie
.	24g/	.	.	.
.	24d/JJ	.	.	.
8DD/J 8D	24a/LL	.	8a/	i
.	24f#/	.	.	.
.	24c/JJ	.	.	.
!!LO:LB:g=original
=13	=13	=13	=13	=13
.	8qa/	.	.	.
8GGG/ 8GG	24g/LL	.	8g/	pa-
.	24d/	.	.	.
.	24B/JJ	.	.	.
*clefG2	*	*	*	*
.	8qa/	.	.	.
*	*rep	*	*	*
4ddd\	24g/LL	.	8g/	-ny.
.	24d/	.	.	.
.	24B/JJ	.	.	.
*	*Xrep	*	*	*
*	*rep	*	*	*
.	8qa/	.	.	.
.	24g/LL	.	4r	.
.	24d/	.	.	.
.	24B/JJ	.	.	.
*	*Xrep	*	*	*
*	*rep	*	*	*
.	8qa/	.	.	.
(16bb\LL	24g/LL	.	.	.
.	24d/	.	.	.
16gg\JJ)	.	.	.	.
.	24B/JJ	.	.	.
*	*Xrep	*	*	*
=14	=14	=14	=14	=14
*^	*	*	*	*
8dd\	4ryy	24a/LL	.	4r	.
.	.	24g/	.	.	.
.	.	24d/JJ	.	.	.
*	*	*rep	*	*	*
8r	.	24b/LL	.	.	.
.	.	24g/	.	.	.
.	.	24d/JJ	.	.	.
*clefF4	*	*Xrep	*	*	*
*	*	*rep	*	*	*
8F#/L 8A	4D\	24cc/LL	.	8a/	ów
.	.	24a/	.	.	.
.	.	24d/JJ	.	.	.
*	*	*Xrep	*	*	*
*	*	*rep	*	*	*
8F#/J 8A	.	24b/LL	.	8a/	mę-
.	.	24g/	.	.	.
.	.	24d/JJ	.	.	.
*	*	*Xrep	*	*	*
=15	=15	=15	=15	=15	=15
*	*2\left	*	*	*	*
8G/L 8B	[>2D\	24b/LL	.	8b/	-drzec,
.	.	24g/	.	.	.
.	.	24d/JJ	.	.	.
8G/J 8B	.	24b/LL	.	8b/	co
.	.	24g/	.	.	.
.	.	24d/JJ	.	.	.
8A/L 8c	.	24cc/LL	.	8.cc/	mi-
.	.	24a/	.	.	.
.	.	24d/JJ	.	.	.
8G/J 8B	.	24b/LL	.	.	.
.	.	24g/	.	.	.
.	.	.	.	16b/	-łość
.	.	24d/JJ	.	.	.
=16	=16	=16	=16	=16	=16
.	.	.	.	4qqb/	.
8F#/L 8A	2D\_>	24a/LL	.	8a/	czu-
.	.	24f#/	.	.	.
.	.	24d/JJ	.	.	.
*	*	*rep	*	*	*
8F#/ 8A	.	24a/LL	.	8a/	-ie,
.	.	24f#/	.	.	.
.	.	24d/JJ	.	.	.
*	*	*Xrep	*	*	*
*	*	*rep	*	*	*
8F#/ 8A	.	24a/LL	.	8a/	chę-
.	.	24f#/	.	.	.
.	.	24d/JJ	.	.	.
*	*	*Xrep	*	*	*
*	*	*rep	*	*	*
8A/J 8c	.	24a/LL	.	16b/LL	-tniey
.	.	24f#/	.	.	.
.	.	.	.	16cc/JJ	.
.	.	24d/JJ	.	.	.
*	*	*Xrep	*	*	*
=17	=17	=17	=17	=17	=17
.	.	.	.	8qcc/	.
8G/L 8B	2D\]	24b/LL	.	8b/	się
.	.	24g/	.	.	.
.	.	24d/JJ	.	.	.
*	*	*rep	*	*	*
8G/ 8B	.	24b/LL	.	8b/	do
.	.	24g/	.	.	.
.	.	24d/JJ	.	.	.
*	*	*Xrep	*	*	*
8E/ 8G	.	24cc#X/LL	.	8.cc#X/	pió-
.	.	24g/	.	.	.
.	.	24e/JJ	.	.	.
*	*	*rep	*	*	*
8E/J 8G	.	24cc#/LL	.	.	.
.	.	24g/	.	.	.
.	.	.	.	(>8qdd/	.
.	.	.	.	32b/LLL	-ra
.	.	24e/JJ	.	.	.
.	.	.	.	32cc#/JJJ	.
*	*	*Xrep	*	*	*
=18	=18	=18	=18	=18	=18
.	.	.	.	8qee/	.
4F#/ 4A	4D\	24dd/LL	.	8dd\)	bie-
.	.	24a/	.	.	.
.	.	24f#/JJ	.	.	.
.	.	24dd/LL	.	16dd\	-rze.
.	.	24a/	.	.	.
.	.	.	.	16r	.
.	.	24f#/JJ	.	.	.
8G\L 8B 8d	4ryy	24dd/LL	.	8dd\	chę-
.	.	24b/	.	.	.
.	.	24g/JJ	.	.	.
8G\J 8B 8d	.	24dd/LL	.	8dd\	-tniey
.	.	24b/	.	.	.
.	.	24g/JJ	.	.	.
=19	=19	=19	=19	=19	=19
8e/	8E\ 8G#X 8B	24ee/LL	.	8ee\	na-
.	.	24b/	.	.	.
.	.	24g#X/JJ	.	.	.
8G#\L	4.ryy	24dd/LL	.	8dd\	-u-
.	.	24b/	.	.	.
.	.	24e/JJ	.	.	.
8A\	.	24cc/LL	.	8.cc\	-cza,
.	.	24a/	.	.	.
.	.	24e/JJ	.	.	.
8F#\J	.	24dd/LL	.	.	.
.	.	24cc/	.	.	.
.	.	.	.	32qqee/LLL	.
.	.	.	.	32qqdd/	.
.	.	.	.	32qqcc/JJJ	.
.	.	.	.	16dd\	pra-
.	.	24a/JJ	.	.	.
*v	*v	*	*	*	*
!!LO:PB:g=original
=20	=20	=20	=20	=20
.	.	.	8qcc/	.
8G\L	24dd/LL	.	8b/	-cu-
.	24b/	.	.	.
.	24g/JJ	.	.	.
8G\J	24b/LL	.	8b/	-ie,
.	24g/	.	.	.
.	24e/JJ	.	.	.
4BBB/ 4BB	24dd/LL	rf	8r	.
.	24b/	.	.	.
.	24g/JJ	.	.	.
.	24ffn\LL	.	8dd\	szczę-
.	24dd\	.	.	.
.	24g\JJ	.	.	.
=21	=21	=21	=21	=21
2CC/ 2C	24ee\LL	.	(8.ee\L	-sli-
.	24cc\	.	.	.
.	24g\JJ	.	.	.
.	24cc/LL	.	.	.
.	24g/	.	.	.
.	.	.	32dd\LL	.
.	24e/JJ	.	.	.
.	.	.	32cc\JJJ)	.
.	24cc/LL	.	8cc\	-wy
.	24g#X/	.	.	.
.	24e/JJ	.	.	.
.	24cc/LL	.	8cc\	kto
.	24a/	.	.	.
.	24e/JJ	.	.	.
=22	=22	=22	=22	=22
!	!LO:TUP:b:problem:klamra łukowa	!	!	!
4DD/ 4D	24b/LL	.	(8b/	ko-
.	24g/	.	.	.
.	24d/JJ	.	.	.
!	!LO:TUP:b:problem:klamra łukowa	!	!	!
.	24b/LL	.	4dd\)	.
.	24g/	.	.	.
.	24d/JJ	.	.	.
!	!LO:TUP:b:problem:klamra łukowa	!	!	!
4DD/ 4D	24a/LL	.	.	.
.	24f#/	.	.	.
.	24c/JJ	.	.	.
!	!LO:TUP:b:problem:klamra łukowa	!	!	!
.	24a/LL	.	8f#X/	-cha
.	24f#/	.	.	.
.	24c/JJ	.	.	.
=23	=23	=23	=23	=23
8GG/L 8G	24g/LL	.	8g/	szcze-
.	24d/	.	.	.
.	24B/JJ	.	.	.
8GGG/ 8GG	24g/LL	.	16g/	-rze
.	24d/	.	.	.
.	.	.	16r	.
.	24B/JJ	.	.	.
8GGG/J 8GG	24G/LL	.	4r	.
.	24B/	.	.	.
.	24d/JJ	.	.	.
8r	24g/LL	.	.	.
.	24b/	<	.	.
.	24dd/JJ	.	.	.
=24	=24	=24	=24	=24
!	!LO:TUP:a:problem:klamra łukowa	!	!	!
4r	24gg\LL	.	2r	.
.	24cc#X\	[	.	.
.	24dd\JJ	.	.	.
.	32dd#X\LLL	.	.	.
.	32ee\	.	.	.
.	32ffn\	.	.	.
.	32ff#X\JJJ	.	.	.
24G\LL	8gg\L	.	.	.
24B\	.	.	.	.
24d\JJ	.	.	.	.
24G\LL	8gg\J	.	.	.
24B\	.	.	.	.
24d\JJ	.	.	.	.
!!LO:LB:g=original
=25	=25	=25	=25	=25
24F#\LL	(4aa\	rf	2r	.
24c\	.	.	.	.
24d\JJ	.	.	.	.
24F#\LL	.	.	.	.
24c\	.	.	.	.
24d\JJ	.	.	.	.
24G\LL	8gg\L)	.	.	.
24B\	.	.	.	.
24d\JJ	.	.	.	.
24G\LL	8gg\J	.	.	.
24B\	.	.	.	.
24d\JJ	.	.	.	.
=26	=26	=26	=26	=26
24F#\LL	8.aa\L	rf	2r	.
24A\	.	.	.	.
24d\JJ	.	.	.	.
24F#\LL	.	.	.	.
24A\	.	.	.	.
.	32bb\LL	.	.	.
24d\JJ	.	.	.	.
.	32ccc\JJJ	.	.	.
24G\LL	8bb\L	.	.	.
24B\	.	.	.	.
24d\JJ	.	.	.	.
24G\LL	8bb\J	.	.	.
24B\	.	.	.	.
24d\JJ	.	.	.	.
=27	=27	=27	=27	=27
24E\LL	8bb\L	.	2r	.
24G\	.	.	.	.
24B\JJ	.	.	.	.
24BB/LL	8gg\J	.	.	.
24D/	.	.	.	.
24G/JJ	.	.	.	.
24C/LL	8aa\L	.	.	.
24E/	.	.	.	.
24A/JJ	.	.	.	.
24D\LL	8ff#\J	.	.	.
24A\	.	.	.	.
24c\JJ	.	.	.	.
=28	=28	=28	=28	=28
24G\LL	8gg\	.	2r	.
24B\	.	.	.	.
24d\JJ	.	.	.	.
24G\LL	8r	.	.	.
24B\	.	.	.	.
24d\JJ	.	.	.	.
24G\LL	8bb\	.	.	.
24B\	.	.	.	.
24d\JJ	.	.	.	.
24G\LL	8r	.	.	.
24B\	.	.	.	.
24d\JJ	.	.	.	.
=29	=29	=29	=29	=29
!	!LO:TX:b:t=dal Segno	!	!	!
4GGG/ 4GG	4g\ 4b 4gg	.	4r	.
=:|!	=:|!	=:|!	=:|!	=:|!
*-	*-	*-	*-	*-
!!!RDF**kern: > = above
!!!RDF**kern: < = below
!!!system-decoration: s1[(s2,s3)]
!!!ENC: Filip Voros
!!!END: 2022-07-25
!!!ENC: Urszula Świątek
!!!END: 2022-08-22
!!!YEC: Copyright 2022 Narodowy Instytut Fryderyka Chopina (https://polishscores.org)
!!!YEM: License CC-BY-4.0 (https://creativecommons.org/licenses/by/4.0)
